X:1
T:Title
%%score 1 { ( 2 3 5 ) | ( 4 6 ) }
L:1/8
M:4/4
K:C
V:1 treble nm="Violino" snm="Vln."
V:2 treble nm="Piano" snm="Pf."
V:3 treble 
V:5 treble 
V:4 bass 
V:6 bass 
V:1
"Bm7b5" B2 F2"E7" F3 E |"Am7" E4-"A7" E4 |"Dm7" z2 F2"G7" F2 E2 |"Cmaj7" E4-"Am7" E4 | %4
"Fm7" _A4-"Bb7" ACD_E |"Ebmaj7" F3 G"Cm7" _A2 _B2 |"Am7" c4-"D7" (3:2:2c2 E- (3E^FG | %7
"Gmaj7" A2 B2"Em7" c2 d2 |"C#m7" z2 e2"F#7" e2 ^d2 |"Bmaj7" ^d4-"G#m7" d4 |"C#m7" z2 ^c2 ^d2 e2 | %11
"Bbm7" _e3 _d"Eb7" e2 B2 |"Abm7" _d4- (3:2:2d2 B- (3Bd_e |"Fm7" _d2 =d2"Bb7" _e2 B2 | %14
"Ebm7" _B3 _A _G4- |"Cbmaj7" G8 | z8 |] %17
V:2
 A,4 G,4 | A,8 | [A,C]4 [B,D]4 | B,4 A,4 | _E4 D4 | D4 _E4 | z4 z4 | z4 z4 | B,4 ^C4 | ^D4 B,4 | %10
 [B,E]8 | _A,4 _B,4 | [B,_E]8 | [C_E]4 [_B,D]4 | _D4 _E4 | [_B,_E]8 | z8 |] %17
V:3
 D8 | z8 | x8 | C8 | _A,8 | _B,8 | [A,C]8 | [B,D]8 | E8 | ^F8 | z8 | _D8 | z8 | x8 | _B,8 | z8 | %16
 x8 |] %17
V:4
 [B,,A,]4 [E,,G,]4 | [A,,G,]8 | D,4 G,,4 | C,4 A,,4 | F,,4 _B,,4 | _E,4 C,4 | [A,,G,]4 [D,^F,]4 | %7
 [G,,^F,]4 [E,,G,]4 | [^C,^G,]4 [^F,,^A,]4 | [B,,^A,]4 [^G,,^G,]4 | [^C,^G,]8 | %11
 [_B,,F,]4 [_E,,G,]4 | [_A,,_G,]8 | F,,4 _B,,4 | _E,,4 _D,4 | [B,,_G,]8 | z8 |] %17
V:5
 x8 | C4 ^C4 | x8 | x8 | x8 | x8 | x8 | x8 | x8 | x8 | x8 | x8 | x8 | x8 | x8 | x8 | x8 |] %17
V:6
 x8 | x8 | F,8 | G,8 | F,8 | G,8 | z8 | x8 | x8 | x8 | x8 | x8 | x8 | _A,8 | _G,8 | z8 | x8 |] %17

